!!!COM: Augusta Holme\s
!!!CNT: Francais
!!!TXO: Francais
!!!OTL: "Garci Perez"
!!!LYR:
!!!OPR:
!!!OPS: Op.
!!!ONM: No.
!!!ENC: Alyona Dzerbina
!!!YOR: Augusta Holme\s, Garci Perez
!!!YOR: Da Capo Press, New York, 1984
!!!ODT: 1892/
!!NB: Vocal melody and text encoded.
**kern	**text
*staff1	*staff1
=1-	=1-
*clefG2	*
*k[]	*
*M3/8	*
4.r	.
=2	=2
4.r	.
=3	=3
4.r	.
=4	=4
4.r	.
=5	=5
4.r	.
=6	=6
4.r	.
=7	=7
4.r	.
=8	=8
4.r	.
=9	=9
*M3/4	*
2.r	.
=10	=10
2.r	.
=11	=11
2.r	.
=12	=12
2.r	.
=13	=13
{8.ee	{Don
16ee	Gar-
8.ee	-ci
16ee	Pe-
8dd	-rez
16cc	de
16dd	Var-
=14	=14
[4ee	-gas,
8ee]}	|}
8r	|
{8dd	{Le
8ee	plus
=15	=15
8cc	fier
16a	che-
16b	-va
4.cc	lier
8a	d'Es-
=16	=16
*met(C)	*
*M4/4	*
4b	-pa-
[4e	-gne,
8e]}	|}
8r	.
4r	.
=17	=17
*M3/4	*
4r	.
4r	.
8r	.
{8e	{Bra-
=18	=18
4ee	-vant
8.ee	Mo-
16ee	-res
8dd	et
16cc	re-
16dd	-ne/-
=19	=19
8.ee	-gats,
16cc	Che-
[4a	-vauche
8a]	|
16b	a\
16cc	tra-
=20	=20
8dd	-vers
16ee	la
16ff	campa-
4ee	|
(ddq	|
eeq)	|
4dd	|
=21	=21
[2cc	-gue!
8cc]}	|}
8r	.
=22	=22
4r	.
4r	.
8r	.
{8e	{A
=23	=23
8.b	ses
16b	co^-
8.b	-te/s
16b	che-
8.cc	-mine
16a	aus-
=24	=24
[4b	-si
8b]	|
8r	.
8cc	Un
16b	com-
16a	-pa-
=25	=25
16b	-gnon
16g	d'hu-
16a	-meur
16b	trem-
4g	-blan-
(f#q	|
gq)	|
4f#	|
=26	=26
[4e	-te!
8e]}	|}
8r	.
8r	.
{8e	{Pe-
=27	=27
8.ee	-rez,
16ee	dit-
8ee	il,
16r	.
16ee	sor-
(12dd	-tons
12cc)	|
12dd	d'i-
=28	=28
[4ee	-ci!
8ee]}	|}
8r	.
{16dd	{Cet-
16dd	-te
16ee	pro-
16ff	-me-
=29	=29
8ee	-nade
16ff	est
16ee	trop
(4dd	len
eeq	|
ddq	|
4ccx	|
=30	=30
*M2/4	*
ddq	|
ccq	|
4b	|
ccq	|
bq	|
4a	|
=31	=31
*M3/4	*
bq	|
aq	|
[4ee	|
8.ee]	|
16ff	|
8.ee	|
16ff	|
=32	=32
4ee)}	-te!}
4r	.
8r	.
16r	.
{16e	{Les
=33	=33
[4b	Mo-
16b]	|
16b	-res
16b	nous
16b	tue-
8cc	-rout,
16r	.
16a	c'est
=34	=34
[4b	clair,
8b]	|
16b	Et
16b	je
8cc	tiens
16b	a\
16a	ma
=35	=35
*M2/4	*
8b	vie,
8g	en
(f#q	|
gq)	|
4f#	som-
=36	=36
*M3/4	*
[4e	-me!
4e]}	|}
4r	.
=37	=37
*k[f#c#g#]	*
{4ee	{Moi,
8r	.
16cc#	j'ai
16ee	be-
16ff#	-soin
16ff#	de
16cc#	pren-
16ff#	-dre
=38	=38
8ee	l'air!
16cc#	Dit
16a	Pe-
[4f#	-rez
8f#]	|
16g#	en
16a	quit-
=39	=39
8b	-tant
8dd	son
4cc#	heau-
(bq	|
cc#q)	|
4b	|
=40	=40
*k[]	*
*M3/8	*
4a}	-me!}
8r	.
=41	=41
*M2/4	*
2r	.
=42	=42
*M3/8	*
4.r	.
=43	=43
*M2/4	*
2r	.
=44	=44
*M3/8	*
4.r	.
=45	=45
*M2/4	*
2r	.
=46	=46
*M3/8	*
4.r	.
=47	=47
*M2/4	*
2r	.
=48	=48
*M3/4	*
{8.ee	{A
16ee	ces
4ee	mots,
16dd	d'un
16dd	che-
16cc	-min
16dd	cou-
=49	=49
[4ee	-vert,
8ee]	|
8r	.
8dd	Cui-
8ee	-ras-
=50	=50
8cc	-se/s
16a	et
16b	por-
4.cc	-tant
8a	la
=51	=51
*met(C)	*
*M4/4	*
4b	lan-
[2e	-ce,
8e]}	|}
8r	.
=52	=52
*M3/4	*
2.r	.
=53	=53
{8ee	{Dix
16ee	ca-
16ee	-va-
4ee	-liers
8dd	au
16cc	tur-
16dd	-ban
=54	=54
2ee	vert
16cc	Sor-
16a	-tent
16b	un
16cc	par
=55	=55
8dd	un,
16ee	en
16ff	si-
4ee	-len-
ddq	|
eeq	|
4dd	|
=56	=56
[2cc	ce!
8cc]}	|}
8r	.
=57	=57
4r	.
4r	.
8r	.
16r	.
{16a	{Saint
=58	=58
4ee	Jac-
8b	-ques!
8r	.
16cc	je
16cc	l'a-
16b	-vais
16a	bien
=59	=59
16b	dit!
16r	.
16a	Sau-
16b	vous
[4ee	-nous!
16ee]}	|}
16r	.
{8cc	{Et
=60	=60
8b	l'a\me
16a	e/-
16b	per
4g	-du
(f#q	|
gq	|
4f#)	|
=61	=61
[2e	e,
8e]}	|}
8r	.
=62	=62
{8ee	{Le
16ee	com-
16ee	-pa-
4ee	-gnon
8dd	trai^tre
16cc	et
16dd	mau-
=63	=63
8ee	-dit
16cc	dis-
16b	-pa-
4a	-rait
8r	.
8cc	a\
=64	=64
8dd	bride
16ee	ab-
16ff	-at-
(4ee	-tu
ffq	|
eeq	|
4dd	|
=65	=65
eeq	|
ddq	|
4cc	|
ddq	|
ccq	|
4b	|
ccq	|
bq	|
4a	|
=66	=66
bq	|
aq	|
[4ee	|
8.ee]	|
16ff	|
8.ee	|
16ff	|
=67	=67
[4ee	|
8.ee]	|
16ff	|
8.ee	|
16ff	|
=68	=68
[2ee	-e!
8ee])}	|}
8r	.
=69	=69
{8ee	{Bon!
16r	.
16e	tant
(12g	mieux!
12a	dit
12b)	Gar-
8cc	-ci
8dd	Pe-
=70	=70
(ddq	|
8cc)	-rez,
8b	|
16r	.
16b	Bien
16a	ne
16b	me
16cc	ge\ne
16b	au-
16a	-tant
16cc	qu'un
=71	=71
(2b	la\-
aq	|
bq	|
4a	|
=72	=72
[2e)	-che!
8e]}	|}
8r	.
=73	=73
*k[f#c#g#]	*
{4ee	{Et
16e	de-
16a	-vant
16cc#	l'en-
16ee	ne
8ff#	-mi,
16r	.
16aa	tout
=74	=74
8ee	pre\s,
16r	.
16cc#	Il
[4a	pas-
8a]	-se
16f#	en
16g#	fri-
=75	=75
8a	-sant
16b	sa
16dd	mous-
4cc#	-ta-
(bq	|
cc#q)	|
4b	|
=76	=76
*k[]	*
*M3/8	*
4a}	-che!}
8r	.
=77	=77
*M2/4	*
2r	.
=78	=78
*M3/8	*
4.r	.
=79	=79
*M2/4	*
2r	.
=80	=80
*M3/8	*
4.r	.
=81	=81
*M2/4	*
2r	.
=82	=82
*M3/8	*
4.r	.
=83	=83
*M2/4	*
4r	.
8r	.
{8ee	{Un
=84	=84
*M3/4	*
8.ee	coq,
16ee	aux
4ee	yeux
8dd	de
16cc	di-
16dd	-a-
=85	=85
[4ee	-mant!
8ee]	|
8r	.
8dd	Bril-
8ee	-le
=86	=86
16cc	sur
16b	son
16a	bouc-
16b	-li-
2cc	-er
=87	=87
*met(C)	*
*M4/4	*
4b	som-
[2.e	-bre;
=88	=88
*M3/4	*
4e]}	|}
4r	.
8r	.
{8e	{Et
=89	=89
8ee	les
16ee	Sar-
16ee	-raz-
4ee	-ins,
(12dd	pru-
12cc)	|
12dd	-dem-
=90	=90
[4ee	-ment,
16ee]	|
16r	.
8cc	N'ont
8a	point
16b	avan-
16cc	|
=91	=91
8dd	-ce/,
16ee	bien
16ff	qu'en
4ee	nom-
(ddq	|
eeq)	|
4dd	|
=92	=92
[4cc	-bre!
8cc]}	|}
8r	.
4r	.
=93	=93
4r	.
4r	.
{8.e	{Mais
16e	si-
=94	=94
4.b	-to^t
16b	le
16b	guer-
8.cc	-rier
16a	pas-
=95	=95
[4b	-se/,
8b]	|
8b	L'un
8cc	d'eux,
16r	.
16a	du
=96	=96
16b	bout
16g	de
16a	son
16b	e/-
4g	-pe-
(f#q	|
gq)	|
4f#	|
=97	=97
[2e	-e,
8e]}	|}
8r	.
=98	=98
{8ee	{Tout
16ee	tri-
16ee	-om-
4ee	-phant
8dd	a
16cc	ra-
16dd	-mas-
=99	=99
8.ee	-se/
16cc	L'e/c-
[4a	-harpe
8a]	|
16b	a\
16cc	ses
=100	=100
8dd	pieds
(16ee	tom-
16ff)	|
(4ee	-be/-
ffq	|
eeq	|
4dd	|
=101	=101
eeq	|
ddq	|
4cc	|
ddq	|
ccq	|
4b	|
ccq	|
bq	|
4a	|
=102	=102
bq	|
aq	|
[4ee	|
8.ee]	|
16ff	|
8.ee	|
16ff	|
=103	=103
[4ee	|
8.ee]	|
16ff	|
8.ee	|
16ff	|
=104	=104
[4ee)	-e!
8ee]}	|}
8r	.
4r	.
=105	=105
{(8.gg	{Sang
16e)	du
8g	Christ!
8r	.
16a	tu
16b	ne
16cc	l'au-
16dd	-ras
=106	=106
[2ff	pas,
16ff]	|
16r	.
8ff	L'e/-
=107	=107
4ff	-char-
4g	-pe
16a	de
16b	ma
16cc	Da-
16dd	-me
=108	=108
(8.ee	blon-
16ff#)	.
[4ee	-de!
8ee]}	|}
8r	.
=109	=109
*k[f#c#g#]	*
{8.ee	{Et
16cc#	Gar-
8ee	-ci,
16r	.
16ee	la
8ff#	fleur
16cc#	des
16a	com-
=110	=110
8ee	-bast,
16cc#	s'est
16a	ru-
4.f#	-e/
16g#	Sur
16a	la
=111	=111
8b	gent
8dd	im-
2ee	-mon-
=112	=112
4a}	-de!}
4r	.
4r	.
=113	=113
4r	.
4r	.
12r	.
{(12cc#	{Chan-
12dd)	-tez
=114	=114
*M2/4	*
(12ee	gloire
12ff#	a\
12gg#)	Gar-
8aa	-ci
8cc#	Pe-
=115	=115
[2ee	-rez!
=116	=116
4ee_	|
8ee]}	|}
8r	.
=117	=117
4r	.
12r	.
{(12cc#	{Chan-
12dd)	-tez
=118	=118
(12ee	gloire
12ff#	a\
12gg#)	Gar-
8aa	-ci
8cc#	Pe-
=119	=119
[2ee	-rez!
=120	=120
4ee_	|
8ee]}	|}
8r	.
=121	=121
4r	.
12r	.
{12cc#	{Chan-
12dd	-tez
=122	=122
12ee	gloire
12ff#	a\
12ggn	Gar-
8aa	-ci
8cc#	Pe-
=123	=123
[4ff#	-rez!
(24ff#]}	|}
24r	.
{12f#	{Car
12g#)	a\
=124	=124
8a#	l'heure
8b	ou\
(12cc#	l'astre
12dd	e/-
12ee)	-tin-
=125	=125
8dd	-ce-
8b}	-le,}
8r	.
{8cc#	{Dix
=126	=126
(12ee	te^-
12cc#	-tes
12dd)	aux
(12ee	fronts
12ff#	la-
12cc#)	-ce/-
=127	=127
(8ee	-re/s
8b)}	|}
8r	.
{8cc#	{Sai-
=128	=128
(12ee	-gnaient
12cc#	au
12dd)	pom-
(12ee	-meau
12ff#	de
12cc#)	sa
=129	=129
8ee	sel-
8b}	-le!}
12r	.
{(12ee	{Ay!
12ff#)	Ay!
=130	=130
(12gg#	Ay!
12ff#	chan-
12ee)	-tez
8dd#	gloi-
8ff#	-re
=131	=131
12r	.
(12ee	chan-
12dd)	-tez
8cc#	gloi-
8ee	-re
=132	=132
12r	.
(12b	a\
12cc#)	Gar-
8dd	-ci
8ff#	Pe-
=133	=133
(8cc#	-rez!
8ee)}	|}
12r	.
{(12ee	{Ay!
12ff#)	Ay!
=134	=134
(12gg#	Ay!
12ff#	chan-
12ee)	-tez
8dd#	gloi-
8ff#	-re
=135	=135
12r	.
(12ee	chan-
12dd)	-tez
8cc#	gloi-
8ee	-re
=136	=136
12r	.
(12b	a\
12cc#)	Gar-
8dd	-ci
8ff#	Pe-
=137	=137
8cc#	-rez!
16r	.
16ee	Ol-
4ee	-le/!
=138	=138
12r	.
(12b	a\
12cc#)	Gar-
8dd	-ci
8ff#	Pe-
=139	=139
8cc#}	-rez}
16r	.
{16ee	{Ol-
8ee	-le/!
16r	.
16a	chan-
=140	=140
*M3/4	*
(8.ff#	-tez
16gg#	|
8.ff#	|
16gg#	|
8.ff#	|
16gg#	|
=141	=141
8ff#)	|
16r	.
16ff#	Ol-
[4aa	-le/!
8aa]	|
16a	chan-
16b	-tez
=142	=142
8cc#	gloire
16b	a\
16a	Gar-
4.ee	-ci
8ee	Pe-
=143	=143
4a}	-rez!!}
4r	.
4r	.
==	==
*-	*-
